archdroid-icon-theme/Archdroid-Brown/apps/scalable/tomboy-panel.svg

<?xml version="1.0" encoding="UTF-8" standalone="no"?>
<svg
   xmlns:dc="http://purl.org/dc/elements/1.1/"
   xmlns:cc="http://creativecommons.org/ns#"
   xmlns:rdf="http://www.w3.org/1999/02/22-rdf-syntax-ns#"
   xmlns:svg="http://www.w3.org/2000/svg"
   xmlns="http://www.w3.org/2000/svg"
   xmlns:sodipodi="http://sodipodi.sourceforge.net/DTD/sodipodi-0.dtd"
   xmlns:inkscape="http://www.inkscape.org/namespaces/inkscape"
   fill="#795548"
   width="48"
   height="48"
   viewBox="0 0 48 48"
   id="svg2"
   version="1.1"
   inkscape:version="0.91 r13725"
   sodipodi:docname="tomboy-panel.svg">
  <metadata
     id="metadata10">
    <rdf:RDF>
      <cc:Work
         rdf:about="">
        <dc:format>image/svg+xml</dc:format>
        <dc:type
           rdf:resource="http://purl.org/dc/dcmitype/StillImage" />
      </cc:Work>
    </rdf:RDF>
  </metadata>
  <defs
     id="defs8" />
  <sodipodi:namedview
     pagecolor="#ffffff"
     bordercolor="#666666"
     borderopacity="1"
     objecttolerance="10"
     gridtolerance="10"
     guidetolerance="10"
     inkscape:pageopacity="0"
     inkscape:pageshadow="2"
     inkscape:window-width="1366"
     inkscape:window-height="713"
     id="namedview6"
     showgrid="false"
     inkscape:snap-bbox="true"
     inkscape:bbox-nodes="true"
     inkscape:zoom="5.512044273741688"
     inkscape:cx="-2.320691272495132"
     inkscape:cy="7.403370499661008"
     inkscape:window-x="0"
     inkscape:window-y="30"
     inkscape:window-maximized="1"
     inkscape:current-layer="svg2"
     inkscape:snap-page="true" />
  <path
     style="opacity:1;fill:#795548;fill-opacity:1;fill-rule:nonzero;stroke:none;stroke-width:3;stroke-miterlimit:4;stroke-dasharray:none;stroke-opacity:1"
     d="M 10 6 C 7.784000000000001 6.000000000000001 6 7.784 6 10 L 6 38 C 6.000000000000001 40.216 7.784 42 10 42 L 38 42 C 40.216 42 42 40.216 42 38 L 42 10 C 42 7.784000000000001 40.216 6 38 6 L 10 6 z M 31.552734375 12 C 31.89444850196207 12 32.23605763387276 12.13058888387275 32.49609375 12.390625 L 35.609375 15.50390625 C 36.12944723225451 16.02397848225447 36.1294472322545 16.8705527677455 35.609375 17.390625 L 33.169921875 19.83203125 L 28.16796875 14.830078125 L 30.609375 12.390625 C 30.86941111612723 12.13058888387275 31.21102024803793 12 31.552734375 12 z M 26.755859375 16.244140625 L 31.755859375 21.244140625 L 17 36 L 12 36 L 12 31 L 26.755859375 16.244140625 z "
     id="rect4174" />
</svg>

<svg xmlns="http://www.w3.org/2000/svg" fill="#795548" viewBox="0 0 48 48"><path d="m10 6c-2.216 0-4 1.784-4 4v28c0 2.216 1.784 4 4 4h28c2.216 0 4-1.784 4-4v-28c0-2.216-1.784-4-4-4h-28m21.553 6c.342 0 .683.131.943.391l3.113 3.113c.52.52.52 1.367 0 1.887l-2.439 2.441-5-5 2.441-2.439c.26-.26.602-.391.943-.391m-4.797 4.244l5 5-14.756 14.756h-5v-5l14.756-14.756"/></svg>
